X: 09092
T: PRISCILLA'S HORNPIPE
C: Bob McQuillen 18 Nov 92
B: Bob's Note Book 9 #92
R: hornpipe, reel
Z: 2018 John Chambers <jc:trillian.mit.edu>
M: C
L: 1/8
K: D
AG |\
FDFA BAFA | dfec d2AG | FDFA dfef | g2e2 e2fg |
afdA BAFA | defg a2fa | gfed ceag | f2d2 d2 :|
|: AG |\
FAde d2dB | AFEG FDAG | FAde d2ef | geag fdfe |
dAFA GBAG | FDEF G2AG | FAdf gecd | e2d2 d2 :|
%%begintext align
%% Ed Bonsell is a fine hammer
%% dulcimer player from Ft. Washington, PA. He has a nursery
%% in his back yard where he raises pretty trees and bushes
%% and woodchucks. He also has a real nice friend named
%% Priscilla Mather (whom he does NOT keep in the back yard) and
%% I happen to think she's so cool that I wrote her this tune. I
%% sure hope you like it, Priscilla - See if you can get Eddy to
%% play it for you on his dulcimer - much love to you guys -
%%endtext

%%sep 1 1 500

%%sep 1 1 500

